packages/foundations/assets/icons/functional/images/date & time/alarm_clock_plus.svg

<svg xmlns="http://www.w3.org/2000/svg" width="32" height="32" fill="none"><path fill="#1A1C1F" fill-rule="evenodd" d="M8.107 4.058C6.574 4.239 5.158 5.247 4.48 6.64c-.358.735-.451 1.162-.449 2.053.002.685.019.828.146 1.243.252.823.583 1.39 1.145 1.967l.347.356-.193.657c-.244.83-.338 1.349-.417 2.291-.152 1.809.243 3.856 1.079 5.593.28.582.964 1.674 1.352 2.16l.128.16-1.254 1.707c-.69.938-1.278 1.766-1.307 1.84-.029.073-.043.259-.031.414a.98.98 0 0 0 .971.889c.506.004.559-.047 1.824-1.749a108 108 0 0 1 1.222-1.628c.058-.062.105-.044.299.114.429.348 1.311.893 1.92 1.185 3.696 1.775 7.974 1.358 11.314-1.105.199-.147.369-.258.379-.247l1.196 1.627c1.213 1.651 1.285 1.728 1.702 1.812.367.073.907-.234 1.062-.603.086-.206.093-.526.016-.746-.03-.088-.617-.913-1.302-1.835l-1.248-1.675.129-.16c.071-.088.342-.476.603-.863.892-1.321 1.443-2.689 1.75-4.337.073-.392.094-.791.094-1.76.001-1.409-.074-1.962-.42-3.106l-.184-.606.346-.368c.634-.673 1.027-1.452 1.225-2.432.115-.566.078-1.443-.084-2.021-.624-2.22-2.739-3.66-5.006-3.409a4.65 4.65 0 0 0-2.762 1.289l-.328.313-.528-.164c-2.006-.623-4.426-.624-6.43-.001l-.527.164-.361-.34a4.7 4.7 0 0 0-3.791-1.261m15.626 1.97c.424.066 1.016.347 1.347.638.333.294.656.791.786 1.212.143.461.144 1.113.003 1.57-.094.302-.385.845-.453.845-.014 0-.145-.176-.291-.393-.785-1.163-1.938-2.317-3.058-3.063-.422-.28-.419-.289.135-.562.563-.277.944-.338 1.531-.247m-14.147.147c.154.059.39.172.524.251l.244.143-.47.32C8.68 7.71 7.614 8.768 6.9 9.853c-.16.242-.302.44-.316.44-.069 0-.359-.543-.453-.845-.14-.454-.14-1.11.001-1.562.265-.853.976-1.526 1.882-1.78.39-.11 1.203-.075 1.572.069m8.201 1.024c4.496.966 7.532 4.983 7.17 9.485a8.6 8.6 0 0 1-.878 3.236 8.98 8.98 0 0 1-10.934 4.59c-2.198-.736-4.1-2.394-5.142-4.483-1.711-3.431-1.109-7.464 1.525-10.212 1.411-1.473 3.115-2.367 5.135-2.697.697-.113 2.429-.069 3.124.081m-2.302 3.975a.9.9 0 0 0-.36.41l-.138.277v3.179h-3.271l-.226.133c-.25.146-.503.569-.503.839 0 .373.35.854.691.948.104.029.889.053 1.749.053h1.56l.001 1.587c.001 1.781.014 1.856.388 2.184.504.442 1.396.164 1.578-.492.036-.132.059-.791.059-1.745v-1.534l1.587-.001c1.424-.001 1.609-.011 1.802-.099.349-.158.61-.555.611-.928.001-.157-.156-.482-.309-.643-.285-.3-.296-.302-2.061-.302h-1.63v-1.575c0-1.714-.014-1.812-.309-2.123-.212-.224-.399-.302-.715-.301a.9.9 0 0 0-.504.133"/></svg>

<svg width="32" height="32" viewBox="0 0 32 32" fill="none" xmlns="http://www.w3.org/2000/svg"><path d="M8.107 4.058 C 6.574 4.239,5.158 5.247,4.480 6.640 C 4.122 7.375,4.029 7.802,4.031 8.693 C 4.033 9.378,4.050 9.521,4.177 9.936 C 4.429 10.759,4.760 11.326,5.322 11.903 L 5.669 12.259 5.476 12.916 C 5.232 13.746,5.138 14.265,5.059 15.207 C 4.907 17.016,5.302 19.063,6.138 20.800 C 6.418 21.382,7.102 22.474,7.490 22.960 L 7.618 23.120 6.364 24.827 C 5.674 25.765,5.086 26.593,5.057 26.667 C 5.028 26.740,5.014 26.926,5.026 27.081 C 5.066 27.577,5.491 27.966,5.997 27.970 C 6.503 27.974,6.556 27.923,7.821 26.221 C 8.456 25.366,9.006 24.633,9.043 24.593 C 9.101 24.531,9.148 24.549,9.342 24.707 C 9.771 25.055,10.653 25.600,11.262 25.892 C 14.958 27.667,19.236 27.250,22.576 24.787 C 22.775 24.640,22.945 24.529,22.955 24.540 C 22.964 24.551,23.502 25.283,24.151 26.167 C 25.364 27.818,25.436 27.895,25.853 27.979 C 26.220 28.052,26.760 27.745,26.915 27.376 C 27.001 27.170,27.008 26.850,26.931 26.630 C 26.901 26.542,26.314 25.717,25.629 24.795 L 24.381 23.120 24.510 22.960 C 24.581 22.872,24.852 22.484,25.113 22.097 C 26.005 20.776,26.556 19.408,26.863 17.760 C 26.936 17.368,26.957 16.969,26.957 16.000 C 26.958 14.591,26.883 14.038,26.537 12.894 L 26.353 12.288 26.699 11.920 C 27.333 11.247,27.726 10.468,27.924 9.488 C 28.039 8.922,28.002 8.045,27.840 7.467 C 27.216 5.247,25.101 3.807,22.834 4.058 C 21.771 4.176,20.847 4.607,20.072 5.347 L 19.744 5.660 19.216 5.496 C 17.210 4.873,14.790 4.872,12.786 5.495 L 12.259 5.659 11.898 5.319 C 10.876 4.354,9.495 3.895,8.107 4.058 M23.733 6.028 C 24.157 6.094,24.749 6.375,25.080 6.666 C 25.413 6.960,25.736 7.457,25.866 7.878 C 26.009 8.339,26.010 8.991,25.869 9.448 C 25.775 9.750,25.484 10.293,25.416 10.293 C 25.402 10.293,25.271 10.117,25.125 9.900 C 24.340 8.737,23.187 7.583,22.067 6.837 C 21.645 6.557,21.648 6.548,22.202 6.275 C 22.765 5.998,23.146 5.937,23.733 6.028 M9.586 6.175 C 9.740 6.234,9.976 6.347,10.110 6.426 L 10.354 6.569 9.884 6.889 C 8.680 7.710,7.614 8.768,6.900 9.853 C 6.740 10.095,6.598 10.293,6.584 10.293 C 6.515 10.293,6.225 9.750,6.131 9.448 C 5.991 8.994,5.991 8.338,6.132 7.886 C 6.397 7.033,7.108 6.360,8.014 6.106 C 8.404 5.996,9.217 6.031,9.586 6.175 M17.787 7.199 C 22.283 8.165,25.319 12.182,24.957 16.684 C 24.861 17.882,24.599 18.847,24.079 19.920 C 22.110 23.980,17.431 25.944,13.145 24.510 C 10.947 23.774,9.045 22.116,8.003 20.027 C 6.292 16.596,6.894 12.563,9.528 9.815 C 10.939 8.342,12.643 7.448,14.663 7.118 C 15.360 7.005,17.092 7.049,17.787 7.199 M15.485 11.174 C 15.330 11.267,15.221 11.391,15.125 11.584 L 14.987 11.861 14.987 13.450 L 14.987 15.040 13.351 15.040 L 11.716 15.040 11.490 15.173 C 11.240 15.319,10.987 15.742,10.987 16.012 C 10.987 16.385,11.337 16.866,11.678 16.960 C 11.782 16.989,12.567 17.013,13.427 17.013 L 14.987 17.013 14.988 18.600 C 14.989 20.381,15.002 20.456,15.376 20.784 C 15.880 21.226,16.772 20.948,16.954 20.292 C 16.990 20.160,17.013 19.501,17.013 18.547 L 17.013 17.013 18.600 17.012 C 20.024 17.011,20.209 17.001,20.402 16.913 C 20.751 16.755,21.012 16.358,21.013 15.985 C 21.014 15.828,20.857 15.503,20.704 15.342 C 20.419 15.042,20.408 15.040,18.643 15.040 L 17.013 15.040 17.013 13.465 C 17.013 11.751,16.999 11.653,16.704 11.342 C 16.492 11.118,16.305 11.040,15.989 11.041 C 15.783 11.041,15.646 11.077,15.485 11.174 " fill="#1A1C1F" stroke="none" fill-rule="evenodd"></path></svg>
